X: 10021
Q: "Slowish"
M: C|
L: 1/8
K: D
d |\
E3F B/B/B B>A | d>fed B/B/B B>d |\
e |\
d3f d/d/d d>A | B>A d>A F/F/F F>D |
e3f e/e/e e>f | g>fe>d B/B/B B>e |\
d3f d/d/d d>A | B>Ad>A F/F/F F>D |\


